X:47
M:6/8
L:1/8
K:G
|: d2e f2g | afd afd | c2d e2f | ge^c | ge^c | d2e f2g | afd afd | egf ed^c | d3 d3 :|

